X: 104
P: Longways for as many as will
M: C|
L: 1/8
K: D
d2AG F2A2 | BAGF E2G2 | AGFE D2F2 | EDCB, A,2A2 |\
d2AG F2A2 | e2cB A2fg | afd2 A2c2 | d6 |]
f2 |\
f2df a2fd | f2df e2cA | d2cd B2GB | e2Be c2A2 |\
gaga b2ag | fd fg a2gf | e2de A2c2 | d6 |]

